core/assets/icons/character.dragon.filled.svg

<svg width="24" height="24" viewBox="0 0 24 24" xmlns="http://www.w3.org/2000/svg"><g id="character=dragon, state=filled"><g id="Layer"><g id="Group"><path id="Vector" d="M8.84424 1.48047V4.63635H12.0001L8.84424 1.48047Z"/><path id="Vector_2" d="M18.3118 5.68832L14.104 1.48047V5.68832H4.63631C2.31255 5.68832 0.428467 7.43782 0.428467 9.59568V11.5936L1.74342 12.9086L3.32136 11.3306L4.8993 12.9086L6.47725 11.3306L7.9357 12.789L4.8993 15.8255L3.32136 14.2474L1.74342 15.8255L0.428467 14.5105V19.3638H7.7922V22.5197H18.3118V19.3638H23.5716L19.8271 15.3075L23.5716 12.5261L19.8271 9.74464L23.5716 5.68832H18.3118ZM13.052 8.8442C13.633 8.8442 14.104 9.31522 14.104 9.89616C14.104 10.4771 13.633 10.9481 13.052 10.9481C12.4711 10.9481 12 10.4771 12 9.89616C12 9.31522 12.4711 8.8442 13.052 8.8442Z"/></g></g></g></svg>

<svg xmlns="http://www.w3.org/2000/svg" width="24" height="24" fill="none"><g fill="#191C22"><path d="M8.844 1.48v3.156H12L8.844 1.48Z"/><path d="M18.312 5.688 14.104 1.48v4.208H4.636c-2.323 0-4.208 1.75-4.208 3.908v1.998l1.315 1.315 1.578-1.578L4.9 12.909l1.578-1.578 1.459 1.458-3.037 3.037-1.578-1.579-1.578 1.579L.428 14.51v4.854h7.364v3.156h10.52v-3.156h5.26l-3.745-4.057 3.745-2.78-3.745-2.782 3.745-4.057h-5.26Zm-5.26 3.156a1.052 1.052 0 1 1 0 2.104 1.052 1.052 0 0 1 0-2.104Z"/></g></svg>
